X: 885
T: Father Jack Walsh
N:"Collected by F.O'Neill"
B:O'Neill's 885
Z:Transcribed by Dan G. Petersen, dangp@post6.tele.dk
M:6/8
L:1/8
K:D
(d/e/)|fef ded|cAB c2d|cAF GFG|Ade f2a|
gec ded|cAB c2d|cAF GFG|(A>d)d d2:|
A|dfg afd|dfg a2d|cde ged|cde f2a|
gec ded|cAB c2d|cAF GFG|Add d2A|
dfg afd|dfg a2c'|bgb afd|cde f2a|
gec ded|cAB c2d|cAF GFG|(A>d)d d2|]


